X:1480
T:What can the matter be Jonny stops long at the fair
A:Wyresdale, Lancashire
B:E and J Winder, 1835-41
L:1/8
M:6/8
N:staff lines fade out, pitches for B part aren't that clear
O:England
Z:Richard Robinson 
%%TranscriptionNotes:Some guesswork here owing to imperfect legibility
%%TUNEURL: http://www.leeds.ac.uk/music/Info/RRTuneBk/gettune/00001234.html
%%ID:00001234
K:C
d3 d3 | dBg dBG | c3 c3 | cAB cBA | d3 d3 | dBg dcB | Eed cBA | G3 G2 | ::
d | \
dBc dBc | dBg dBG | cAB cAB | cBA GFE | dBc dBc | dBd dBG | EcB AGF | G3 z2 |]
%%newpage
%page 118 missing
%page 119
